X:1409
T:What A Beau My Granny Was
P:What A Beau My Granny Was
C:Traditional?
R:Reel (8x32)
B:RSCDS 14-9
Z:Anselm Lingnau <anselm@strathspey.org>
M:C
L:1/8
K:D
g|"D"fd"A"ec "G"dBAG|"D"FAdf "A"eE2 g|"D"fd"A"ec "G"dBAG|"D"Fd"A7"Ec "D"d2D g|
  "D"fd"A"ec "G"dBAG|"D"FAdf "A"eE2 g|"D"fd"A"ec "G"dBAG|"D"Fd"A7"Ec "D"d2D||
G|"D"FADF "Em"GBEG|"D"FAdf "A"eE2 G|"D"FAdf "A7"gedc|"D"dBAG FD DG|
  "D"FADF "Em"GBEG|"D"FAdf "A"eE2 G|"D"FAdf "A7"gedc|"D"dBAG FD D|]
